portfolio/adventure/img/svg/arrow-left.svg

<svg xmlns="http://www.w3.org/2000/svg" width="15" height="28"><path d="M14.348 3.58L4.523 14.246l9.953 10.805v.001c.325.366.525.864.525 1.413 0 1.123-.839 2.035-1.875 2.035-.505 0-.964-.217-1.301-.571l-.001.001L.574 15.716h.001a2.114 2.114 0 0 1-.574-1.466v-.004-.005c0-.574.22-1.095.574-1.465H.574L11.824.561l.005.005c.337-.35.794-.565 1.297-.565 1.036 0 1.875.91 1.875 2.035 0 .617-.253 1.171-.653 1.544z" fill-rule="evenodd"/></svg>

<svg xmlns="http://www.w3.org/2000/svg" xmlns:xlink="http://www.w3.org/1999/xlink" preserveaspectratio="xMidYMid" width="15" height="28" viewbox="0 0 15 28">
  <defs>
  </defs>
  <path d="M14.348,3.580 C14.348,3.580 4.523,14.246 4.523,14.246 C4.523,14.246 14.476,25.051 14.476,25.051 C14.476,25.051 14.476,25.052 14.476,25.052 C14.801,25.418 15.001,25.916 15.001,26.465 C15.001,27.588 14.162,28.500 13.126,28.500 C12.621,28.500 12.162,28.283 11.825,27.929 C11.825,27.929 11.824,27.930 11.824,27.930 C11.824,27.930 0.574,15.716 0.574,15.716 C0.574,15.716 0.575,15.716 0.575,15.716 C0.221,15.346 0.001,14.827 0.001,14.250 C0.001,14.248 0.001,14.247 0.001,14.246 C0.001,14.244 0.001,14.243 0.001,14.241 C0.001,13.667 0.221,13.146 0.575,12.776 C0.575,12.776 0.574,12.776 0.574,12.776 C0.574,12.776 11.824,0.561 11.824,0.561 C11.824,0.561 11.829,0.566 11.829,0.566 C12.166,0.216 12.623,0.001 13.126,0.001 C14.162,0.001 15.001,0.911 15.001,2.036 C15.001,2.653 14.748,3.207 14.348,3.580 Z" id="path-1" fill-rule="evenodd"/>
</svg>
